X:1
T:Title
%%score { ( 1 3 ) | 2 }
L:1/8
Q:1/4=93
M:6/8
K:D
V:1 treble nm="Grand Piano"
V:3 treble 
V:2 bass 
V:1
 [FA]>[FB][Fc] [Fd]AG | .F3[K:bass] z3 | [F,B,D]3[K:treble] [A,CE]3 | [A,DF]6 | %4
w: William~M.~Runyan * * * * *||||
 [FA]>[FB][Fc] [Fd][Fc][FB] | [FA]2 [=F^G] [^FA]2 [=FB] | c3 B3 | [CEA]6 | %8
w: ||||
 [CEG][CEG][CEG] [CEG][C^DF][CEG] | [GB]2 [=F^G] [^FA]3 | BBB [^GB][G^A][GB] | [^Gd]2 [GB] [=Gc]3 | %12
w: ||||
 [Fd][Fd][Fd] [Fd]FF | z EA Bcd | F3 [CE]3 | D6 |] %16
w: ||||
V:2
 [D,A,]>[D,A,][D,A,] [D,A,][F,A,D][G,B,D] | .[A,D]2 A,, D,3 | B,,3 A,,3 | D,6 | %4
 [D,D]>[D,D][D,D] [D,A,][D,A,][D,A,] | [D,D]2 [D,D] D,2 ^D, | .[E,A,E]3 .[E,^G,E]3 | A,,6 | %8
 A,,A,,A,, A,,A,,A,, | [D,A,]2 [D,A,] [D,D]3 | [G,DG][G,DG][G,DG][K:bass] [E,E][E,E][E,E] | %11
 [E,B,]2 [E,E] [A,E]3 | [D,D][D,D][D,D] [D,A,][D,A,D][D,A,D] | %13
 .[E,A,C]2 [F,A,D] [G,D][G,A,D][G,B,D] | [A,D]3 [A,,G,]3 | [D,F,]6 |] %16
V:3
 x6 | z C[K:bass][G,CE] [F,D]3 | x3[K:treble] x3 | x6 | x6 | z3 A,3 | z2 C z2 D | x6 | x6 | x6 | %10
 x6 | x6 | x6 | .G3 z3 | x6 | x6 |] %16

